X:1
T:Title
L:1/8
Q:1/4=100
M:4/4
K:Bb
V:1 treble nm="Grand Piano"
V:1
 FFFG FE D2 | FFFG FD E2 | EEEF ED C2 | CDEF E2 F2 | BBBB d d2 c | BBAB c2 A2 | AAAA A2 A2 | %7
w: ?????~????~???? * * * * * *|||||||
 GABc B4 |] %8
w: |

